X:1
T:The King of Glory
T:The King of Glory
T:Haldor Lillenas
T:Charles Reign Scoville, 1916
T:Public Domain Courtesy of the Cyber Hymnal™
T:Public Domain Courtesy of the Cyber Hymnal™
C:Haldor Lillenas
Z:Public Domain
Z:Courtesy of the Cyber Hymnal™
%%score ( 1 2 ) ( 3 4 )
L:1/8
Q:1/4=95
M:4/4
K:C
V:1 treble 
V:2 treble 
V:3 bass 
V:4 bass 
V:1
 [EG]>[DF] | [CE]>[CE] [CE]>[CE] [CE]2 [C^D]>[CE] | [B,G]>[B,F] [DF]>[DF] [DF]4 | %3
w: 1.~Oh, my|soul is all a- flame, How I|love the pre- cious name,|
w: 2.~He who|died to set me free, Shall my|king for- ev- er be,|
w: 3.~Con- ti-|nents and is- lands, too, We will|sure- ly win for You,|
w: 4.~Earth and|Heav’n u- nite to sing, Glad ho-|san- nas to our king,|
 [FB]2 [FB][FA] [EG]2 [DF]2 | (E2 A2) !fermata![CG]2 [EG]>[DF] | %5
w: Je- sus the King of|Glo- * ry; Un- to|
w: Je- su,s the King of|Glo- * ry; To His|
w: Je- sus, the King of|Glo- * ry; Sea to|
w: Je- sus, the King of|Glo- * ry; Un- i-|
 [CE]>[CE] [CE]>[CE] [CE]2 [CE]>[B,D] | C>C C>C (c2 A2) | [EG]2 [Ec][Ec] [Ge]2 [Ec]2 | %8
w: Him my praise I give, For His|king- dom I will live, *|Je- sus, the King of|
w: cause I’ll ev- er give, For His|king- dom I will live, *|Je- sus, the King of|
w: sea and shore to shore, Thou shalt|reign for- ev- er- more, *|Je- sus, the King of|
w: vers- al is His sway, To Him|gates of death give way, *|Je- sus, the King of|
 [Fd]4 [Ec]2 z2 ||"^Refrain" [EG]2 [^D^F][EG] [Ec]2 [EG]2 | [EG]4 [DF]4 | %11
w: Glo- ry.|||
w: Glo- ry.|Je- sus, the King of|Glo- ry,|
w: Glo- ry.|||
w: Glo- ry.|||
 [FB]2 [F^A][FB] [Fd]2 [FB]2 | [^DA]4 [EG]2 [EG]>[EG] | [Ec]>[Ec] [Ec]>[Ec] !fermata![Ge]2 | %14
w: |||
w: Sac- red in song and|sto- ry, Migh- ty|mon- arch, king a- bove,|
w: |||
w: |||
 [Gc]>[Gc] [Fd]>[Fc] [Fc]>[FA] !fermata!z3 x2 | [EG]2 [Ec][Ec]"^Poco" [Ge]2 [Ece]2 | %16
w: ||
w: Reign- ing in the courts of|love, Je- sus, the King|
w: ||
w: ||
"^riten." [Fdf]4 !fermata![Ece]2 |] %17
w: |
w: of Glo-|
w: |
w: |
V:2
 x2 | x8 | x8 | x8 | C4 x4 | x8 | C>C C>C C4 | x8 | x8 || x8 | x8 | x8 | x8 | x6 | %14
 x6 [Dc]4 (B/A/) | x8 | x6 |] %17
V:3
 [C,G,]>[C,G,] | [C,G,]>[C,G,] [C,G,]>[C,G,] [C,G,]2 [C,^F,]>[C,G,] | %2
 [D,G,]>[D,G,] [B,,G,]>[B,,G,] [G,,G,]4 | [G,,G,]2 [G,,G,][G,,G,] [G,,G,]2 [G,,G,]2 | %4
 [C,G,]2 F,2 !fermata![E,G,]2 [C,G,]>[C,G,] | [C,G,]>[C,G,] [C,G,]>[C,G,] [C,G,]2 [G,,G,]>[G,,F,] | %6
 [C,E,]>[C,E,] [E,G,]>[E,G,] (A,2 C2) | [G,C]2 G,G, [G,C]2 G,2 | [G,,G,]4 [C,G,]2 z2 || %9
 [C,C]2 [C,C][C,C] [C,G,]2 [C,C]2 | [G,C]4 [G,B,]4 | [G,D]2 [G,^C][G,D] [G,B,]2 [G,D]2 | %12
 [^F,C]4 [G,C]2 [C,C]>[C,C] | [C,G,]>[C,G,] [C,G,]>[C,G,] !fermata![C,C]2 | %14
 [E,C]>[E,C] [F,A,]>[F,A,] [F,A,]>[F,C] [^F,A,]4 x | [G,C]2 [G,C][G,C] [G,C]2 G,2 | %16
 [G,,G,]4 !fermata![C,G,]2 |] %17
V:4
 x2 | x8 | x8 | x8 | x2 F,2 x4 | x8 | x4 F,4 | x2 G,G, x G,2 x | x8 || x8 | x8 | x8 | x8 | x6 | %14
 x11 | x6 G,2 | x6 |] %17

